X:1
T:The Lord of glory is my light
T:The Lord of glory is my light - Newport (Thomas Jarman)
C:Thomas Jarman
Z:p6, Sacred Music, comprising
Z:Thirty Six Select Hymns,
Z:London: [c1812]
%%score [ 1 2 3 4 ]
L:1/8
M:2/2
K:Bb
V:1 treble nm="Soprano" snm="S."
V:2 treble nm="Alto" snm="A."
V:3 treble-8 transpose=-12 nm="Tenor" snm="T."
V:4 bass nm="Bass" snm="B."
V:1
"^Spiritoso" F2 | B4 c4 | (d2 c2 d2) e2 | (f2 F2 G2) A2 | B4 z2 c2 | (dcde d2) c2 | %6
w: There|shall I|of- * * fer|my _ _ re-|quests, And|see _ _ _ _ thy|
w: The|Lord of|glo- * * ry|is _ _ my|light, And|my _ _ _ _ sal-|
w: One|pri- vi-|lege _ _ my|heart _ _ de-|sires; O|grant _ _ _ _ me|
 (B2 c2 d2) =e2 | f8 | f4 c2 d2 | (e2 fg f2) e2 | (d3 c B2) d2 | c6!p! F2 | (G2 F2) (G2 A2) | %13
w: beau- * * ty|still,|Shall hear thy|mes- * * * sa-|ges _ _ of|love, And|there _ in- *|
w: va- * * tion|too:|God is my|strength, _ _ _ nor|will _ _ I|fear What|all _ my _|
w: an _ _ a-|bode|A- mong the|chur- * * * ches|of _ _ thy|saints, The|tem- * ples _|
 (B2 A2) (B2 c2) | (d2 g2 f2)!f! e2 | (dcde f2) e2 | d4 c4 | B8 |] %18
w: quire _ thy _|will, _ _ and|there _ _ _ _ in-|quire thy|will.|
w: foes _ can _|do, _ _ what|all _ _ _ _ my|foes can|do.|
w: of _ my _|God, _ _ the|tem- * * * * ples|of my|God.|
V:2
 D2 | D4 F4 | F6 G2 | (A2 B2 G2) F2 | F4 z2 F2 | F6 F2 | F6 C2 | C8 | F4 F2 F2 | B6 (AG) | F6 F2 | %11
w: There|shall I|of- fer|my _ _ re-|quests, And|see thy|beau- ty|still,|Shall hear thy|mes- sa- *|ges of|
w: The|Lord of|glo- ry|is _ _ my|light, And|my sal-|va- tion|too:|God is my|strength, nor _|will I|
w: One|pri- vi-|lege my|heart _ _ de-|sires; O|grant me|an a-|bode|A- mong the|chur- ches _|of thy|
 F6 z2 | z8 | z8 | z4 z2 F2 | F6 G2 | F4 E4 | D8 |] %18
w: love,|||And|there in-|quire thy|will.|
w: fear|||What|all my|foes can|do.|
w: saints,|||The|tem- ples|of my|God.|
V:3
 B2 | B4 A4 | (B2 A2 B2) B2 | (c2 d2 B2) e2 | d4 z2 A2 | (BABc B2) e2 | (d2 c2) B4 | A8 | %8
w: There|shall I|of- * * fer|my _ _ re-|quests, And|see _ _ _ _ thy|beau- * ty|still,|
w: The|Lord of|glo- * * ry|is _ _ my|light, And|my _ _ _ _ sal-|va- * tion|too:|
w: One|pri- vi-|lege _ _ my|heart _ _ de-|sires; O|grant _ _ _ _ me|an _ a-|bode|
 d4 c2 B2 | (B2 c2 d2) c2 | (B3 c d2) B2 | A6 z2 | z8 | z8 | z4 z2 A2 | (BABc d2) B2 | B4 A4 | %17
w: Shall hear thy|mes- * * sa-|ges _ _ of|love,|||And|there _ _ _ _ in-|quire thy|
w: God is my|strength, _ _ nor|will _ _ I|fear|||What|all _ _ _ _ my|foes can|
w: A- mong the|chur- * * ches|of _ _ thy|saints,|||The|tem- * * * * ples|of my|
 B8 |] %18
w: will.|
w: do.|
w: God.|
V:4
 B,,2 | B,,4 F,4 | B,6"^6" G,2 | (F,2"^6" D,2 E,2)"^7" F,2 | B,,4 z2 F,2 | B,6"^7" F,2 | %6
w: There|shall I|of- fer|my _ _ re-|quests, And|see thy|
w: The|Lord of|glo- ry|is _ _ my|light, And|my sal-|
w: One|pri- vi-|lege my|heart _ _ de-|sires; O|grant me|
 (B,2"^6" A,2)"^7""^Y43" G,4 | F,8 | B,4"^6" A,2"^7" G,2 |"^6" (G,2"^6" A,2 B,2)"^7" F,2 | %10
w: beau- * ty|still,|Shall hear thy|mes- * * sa-|
w: va- * tion|too:|God is my|strength, _ _ nor|
w: an _ a-|bode|A- mong the|chur- * * ches|
 B,,6 B,,2 | F,6"^["!p!"^]""^3ds" D,2 | (E,2 D,2) (E,2 F,2) | %13
w: ges of|love, And|there _ in- *|
w: will I|fear What|all _ my _|
w: of thy|saints, The|tem- * ples _|
"^Notes:The original order of parts is Tenor - Alto - Air - [Bass]: the alto part is printed in the treble clef an octave abovesounding pitch in the source.Only the first verse of the text is given in the source: subsequent verses have been added editorially." (G,2 F,2) (G,2 A,2) | %14
w: quire _ thy _|
w: foes _ can _|
w: of _ my _|
 (B,2 E2"^Now shall my head be lifted highAbove my foes around,And songs of joy and victoryWithin thy temple sound." D2)"^["!f!"^]""^43" C2 | %15
w: will, _ _ and|
w: do, _ _ what|
w: God, _ _ the|
 B,6 E,2 |"^64" F,4"^53" F,4 | B,,8 |] %18
w: there in-|quire thy|will.|
w: all my|foes can|do.|
w: tem- ples|of my|God.|

